outputs/icons/file/jpg_attach_sharp.svg

<svg xmlns="http://www.w3.org/2000/svg" width="1200" height="1200" fill="none"><path fill="#000" fill-rule="evenodd" d="M50 1150h1100V348.99L850.99 50H50zm750-750h250v650H150V150h650zm55.175 200.1c-11.025 2.78-30.345 12.87-42.54 22.225-24.855 19.07-43.395 55.73-50.905 100.675-3.465 20.72-3.41 92.435.08 114 7.995 49.33 31.105 90.61 60.24 107.58 13.25 7.72 32.255 12.09 45.415 10.45 26.7-3.34 44.765-13.98 62.535-36.845 6.05-7.785 11.555-14.16 12.24-14.17 2.01-.025 3.715 13.865 3.74 30.485L946 950h66V764H886v52h30c34.665 0 31.355-3.055 28.03 25.89-3.495 30.375-16.22 47.375-39 52.105-18.695 3.88-38.33-3.475-49.945-18.705-9.075-11.895-13.16-27.49-15.545-59.31-2.69-35.995.36-107.215 5.28-123.15 8.715-28.235 29.565-39.825 58.525-32.535 11.575 2.915 19.675 10.98 29.17 29.05 4.08 7.76 8.865 15.31 10.635 16.775 4.235 3.52 13.75 2.745 36.85-3 24.27-6.035 30-8.32 30-11.98 0-4.865-8.94-27.98-14.455-37.38-12.58-21.435-40.475-44.32-61.71-50.625-12.085-3.585-67.91-5.74-78.66-3.035M226 662h114l-.05 45.5c-.085 78.105-3.37 159.585-6.688 165.94-10.204 19.535-39.803 26.44-57.47 13.405-8.166-6.025-18.207-20.115-22.682-31.835-3.429-8.98-3.597-9.1-10.797-7.835-14.676 2.585-45.511 8.995-53.057 11.025-7.591 2.045-7.724 2.24-6.698 9.89.576 4.29 4.654 15.25 9.062 24.355 13.471 27.825 35.006 46.42 65.682 56.72 14.716 4.94 17.34 5.195 45.656 4.39 26.637-.755 31.601-1.46 43.797-6.21 31.894-12.425 56.262-37.545 64.468-66.46 2.966-10.45 3.482-27.99 4.273-145.385l.901-133.5H226zm262 288h76V822.595l41.5-1.17c44.96-1.265 58.655-3.635 74.5-12.89 21.81-12.735 41.07-41.055 45.85-67.405 3.135-17.305 2.665-50.305-.915-64.045-7.115-27.33-27.085-51.75-51.76-63.295-16.665-7.8-30.28-9.06-117.675-10.91l-67.5-1.425zm136.695-283.87C644.08 669.81 648 677.75 648 713.33c0 24.115-.27 25.845-5.17 32.91-7.85 11.335-16.905 14.085-50.33 15.285L564 762.55V661.415l25.335 1.41c13.935.77 29.845 2.26 35.36 3.305"/></svg>

<svg width="1200" height="1200" viewBox="0 0 1200 1200" fill="none" xmlns="http://www.w3.org/2000/svg"><path fill-rule="evenodd" d="M50 1150H1150V348.99L850.99 50H50V1150ZM800 400H1050V1050H150V150H800V400ZM855.175 600.1C844.15 602.88 824.83 612.97 812.635 622.325C787.78 641.395 769.24 678.055 761.73 723C758.265 743.72 758.32 815.435 761.81 837C769.805 886.33 792.915 927.61 822.05 944.58C835.3 952.3 854.305 956.67 867.465 955.03C894.165 951.69 912.23 941.05 930 918.185C936.05 910.4 941.555 904.025 942.24 904.015C944.25 903.99 945.955 917.88 945.98 934.5L946 950H1012V764H886V816H916C950.665 816 947.355 812.945 944.03 841.89C940.535 872.265 927.81 889.265 905.03 893.995C886.335 897.875 866.7 890.52 855.085 875.29C846.01 863.395 841.925 847.8 839.54 815.98C836.85 779.985 839.9 708.765 844.82 692.83C853.535 664.595 874.385 653.005 903.345 660.295C914.92 663.21 923.02 671.275 932.515 689.345C936.595 697.105 941.38 704.655 943.15 706.12C947.385 709.64 956.9 708.865 980 703.12C1004.27 697.085 1010 694.8 1010 691.14C1010 686.275 1001.06 663.16 995.545 653.76C982.965 632.325 955.07 609.44 933.835 603.135C921.75 599.55 865.925 597.395 855.175 600.1ZM226 662H340L339.95 707.5C339.865 785.605 336.58 867.085 333.262 873.44C323.058 892.975 293.459 899.88 275.792 886.845C267.626 880.82 257.585 866.73 253.11 855.01C249.681 846.03 249.513 845.91 242.313 847.175C227.637 849.76 196.802 856.17 189.256 858.2C181.665 860.245 181.532 860.44 182.558 868.09C183.134 872.38 187.212 883.34 191.62 892.445C205.091 920.27 226.626 938.865 257.302 949.165C272.018 954.105 274.642 954.36 302.958 953.555C329.595 952.8 334.559 952.095 346.755 947.345C378.649 934.92 403.017 909.8 411.223 880.885C414.189 870.435 414.705 852.895 415.496 735.5L416.397 602H226V662ZM488 950H564V822.595L605.5 821.425C650.46 820.16 664.155 817.79 680 808.535C701.81 795.8 721.07 767.48 725.85 741.13C728.985 723.825 728.515 690.825 724.935 677.085C717.82 649.755 697.85 625.335 673.175 613.79C656.51 605.99 642.895 604.73 555.5 602.88L488 601.455V950ZM624.695 666.13C644.08 669.81 648 677.75 648 713.33C648 737.445 647.73 739.175 642.83 746.24C634.98 757.575 625.925 760.325 592.5 761.525L564 762.55V661.415L589.335 662.825C603.27 663.595 619.18 665.085 624.695 666.13Z" fill="#1D1E23"/></svg>
